X:1
T:Höstsang
T:Höstsang
T:Friedrich Ferdinand Flemming
T:Welhaven
T:Über den Sternen wohnet Gottes Friede
C:Flemming
Z:Welhaven
%%score [ 1 2 3 4 ]
L:1/8
Q:1/4=80
M:4/4
K:G
V:1 treble nm="Soprano"
V:2 treble nm="Alto"
V:3 treble-8 nm="Tenor"
V:4 bass nm="Bass"
V:1
"^Andantino"!p! G4 G2 G2 | A4 A4 | B2 G2!<(! G2 A2!<)! |!>(! G4 F4!>)! |!mf! B4 B2 B2 | B4 A4 | %6
w: 1.Vin- ge- de|ska- rer,|fly de sor- te|sko- ve,|un- der dem|fa- rer|
w: 2.Ak, om jeg|kun- de|föl- ge fug- lens|ba- ner,|vil- de jeg|blun- de|
w: 3.I mi- ne|dröm- me|gror der lil- jer|fag- re,|der ser jeg|öm- me|
 G3 G A2 G2 |!>(! G4 F4!>)! |!f! B4 A2 G2 | c4 A4 | B3 B A2 G2 |!>(! (F2 E2) D4!>)! |!p! B4 G2 A2 | %13
w: storm paa vil- dest|vo- ve,|o- ver dem|blin- ker|stjer- nen mildt og|vin- * ker|to- get til|
w: dog blandt mör- ke|gra- ner;|hist i det|fjer- ne|vin- ker in- gen|stjer- * ne|saa södt, som|
w: for- aars- al- fer|flag- re;|af mi- ne|gra- ve|dan- ne de en|ha- * ve,|væk- ke mig|
 G4 F2 F2 | G4 |] %15
w: pal- mer- nes|ly.|
w: dröm- me- ne|her.|
w: smi- len- de|der.|
V:2
!p! D4 E2 E2 | E4 F4 | G2 D2!<(! E2 E2!<)! |!>(! D4 D4!>)! |!mf! D4 D2 D2 | ^D4 D4 | E3 E F2 E2 | %7
w: 1.Vin- ge- de|ska- rer,|fly de sor- te|sko- ve,|un- der dem|fa- rer|storm paa vil- dest|
w: 2.Ak, om jeg|kun- de|föl- ge fug- lens|ba- ner,|vil- de jeg|blun- de|dog blandt mör- ke|
w: 3.I mi- ne|dröm- me|gror der lil- jer|fag- re,|der ser jeg|öm- me|for- aars- al- fer|
!>(! E4 ^D4!>)! |!f! =D4 D2 D2 | D4 F4 | G3 D D2 G2 |!>(! ^C4 D4!>)! |!p! B,4 B,2 E2 | D4 =C2 C2 | %14
w: vo- ve,|o- ver dem|blin- ker|stjer- nen mildt og|vin- ker|to- get til|pal- mer- nes|
w: gra- ner;|hist i det|fjer- ne|vin- ker in- gen|stjer- ne|saa södt, som|dröm- me- ne|
w: flag- re;|af mi- ne|gra- ve|dan- ne de en|ha- ve,|væk- ke mig|smi- len- de|
 B,4 |] %15
w: ly.|
w: her.|
w: der.|
V:3
!p! B4 B2 B2 | c4 c4 | B2 B2!<(! B2 A2!<)! |!>(! B4 A4!>)! |!mf! G4 G2 G2 | B4 B4 | B3 B c2 B2 | %7
w: 1.Vin- ge- de|ska- rer,|fly de sor- te|sko- ve,|un- der dem|fa- rer|storm paa vil- dest|
w: 2.Ak, om jeg|kun- de|föl- ge fug- lens|ba- ner,|vil- de jeg|blun- de|dog blandt mör- ke|
w: 3.I mi- ne|dröm- me|gror der lil- jer|fag- re,|der ser jeg|öm- me|for- aars- al- fer|
!>(! B4 B4!>)! |!f! G4 c2 B2 | A4 d4 | d3 G A2 B2 |!>(! (A2 G2) F4!>)! |!p! F4 G2 c2 | B4 A2 A2 | %14
w: vo- ve,|o- ver dem|blin- ker|stjer- nen mildt og|vin- * ker|to- get til|pal- mer- nes|
w: gra- ner;|hist i det|fjer- ne|vin- ker in- gen|stjer- * ne|saa södt, som|dröm- me- ne|
w: flag- re;|af mi- ne|gra- ve|dan- ne de en|ha- * ve,|væk- ke mig|smi- len- de|
 B4 |] %15
w: ly.|
w: her.|
w: der.|
V:4
!p! G,4 E,2 E,2 | C,4 D,4 | G,2 B,,2!<(! C,2 C,2!<)! |!>(! D,4 D,4!>)! |!mf! G,4 G,2 G,2 | %5
w: 1.Vin- ge- de|ska- rer,|fly de sor- te|sko- ve,|un- der dem|
w: 2.Ak, om jeg|kun- de|föl- ge fug- lens|ba- ner,|vil- de jeg|
w: 3.I mi- ne|dröm- me|gror der lil- jer|fag- re,|der ser jeg|
 F,4 F,4 | E,3 E, ^D,2 E,2 |!>(! B,,4 B,,4!>)! |!f! G,4 G,2 G,2 | F,4 D,4 | G,3 G, F,2 G,2 | %11
w: fa- rer|storm paa vil- dest|vo- ve,|o- ver dem|blin- ker|stjer- nen mildt og|
w: blun- de|dog blandt mör- ke|gra- ner;|hist i det|fjer- ne|vin- ker in- gen|
w: öm- me|for- aars- al- fer|flag- re;|af mi- ne|gra- ve|dan- ne de en|
!>(! z4 D,4!>)! |!p! ^D,4 E,2 C,2 | =D,4 D,2 D,2 | G,4 |] %15
w: ker|to- get til|pal- mer- nes|ly.|
w: ne|saa södt, som|dröm- me- ne|her.|
w: ve,|væk- ke mig|smi- len- de|der.|

